X:116
T:Martha's O
R:Clog
C:Bruce Osborne - Feb. 2002
Z:abc by bosborne@kos.net
M:4/4
L:1/8
K:Amaj
e>d|c>AE>D C>EA>c|f>dA>F D2 B>A|G>EB,>E G>EF>G|A>cf>c e2 e>d|\
c>AE>D C>EA>c|f>dA>F D2 B>A|G>EB,>E G>EF>G|A>cB>G A2:|
|:c>d|e>cA>c e>ag>a|f>dA>F D2 B>A|G>EB,>E G>EF>G|A>cf>c e2 c>d|\
e>cA>c e>ag>a|f>dA>F D2 B>A|G>EB,>E G>EF>G|A>cB>G A2:|
